!!!COM: Palestrina, Giovanni Perluigi da
!!!OPR: Missa Nasce la gioia mia
!!!OMD: Kyrie
!!!OTL: First Section
**kern	**kern	**kern	**kern	**kern	**kern
*Ibass	*Itenor	*Itenor	*Icalto	*Icant	*Icant
!Bassus	!Tenor 2	!Tenor 1	!Altus	!Cantus 2	!Cantus 1
*clefF4	*clefGv2	*clefGv2	*clefG2	*clefG2	*clefG2
*k[b-]	*k[b-]	*k[b-]	*k[b-]	*k[b-]	*k[b-]
*G:dor	*G:dor	*G:dor	*G:dor	*G:dor	*G:dor
*M4/2	*M4/2	*M4/2	*M4/2	*M4/2	*M4/2
=1	=1	=1	=1	=1	=1
0r	0r	0r	0r	2.g	1r
.	.	.	.	4g	.
.	.	.	.	2g	2.dd
.	.	.	.	[2b-	.
.	.	.	.	.	4dd
=2	=2	=2	=2	=2	=2
0r	0r	1r	0r	2b-]	2dd
.	.	.	.	2g	1b-
.	.	2.G	.	2.b-	.
.	.	.	.	.	2g
.	.	4G	.	4cc	.
=3	=3	=3	=3	=3	=3
0r	0r	2G	1r	2.dd	2.b-
.	.	1B-	.	.	.
.	.	.	.	4cc	4cc
.	.	.	2.d	4b-	[1dd
.	.	.	.	4a	.
.	.	2G	.	[2b-	.
.	.	.	4d	.	.
=4	=4	=4	=4	=4	=4
0r	0r	2.B-	2d	2b-]	2dd]
.	.	.	1f	4a	4cc
.	.	4c	.	4g	4b-
.	.	1d	.	1f	2a
.	.	.	2d	.	[2ff
=5	=5	=5	=5	=5	=5
0r	0r	1B-	2.f	1d	4ff]
.	.	.	.	.	4ee
.	.	.	.	.	1dd
.	.	.	4g	.	.
.	.	1A	1a	1e	.
.	.	.	.	.	2cc#
=6	=6	=6	=6	=6	=6
1r	2.d	1.B-	1f	1d	[0dd
.	4d	.	.	.	.
2.G	2d	.	1g	1r	.
.	[2B-	2G	.	.	.
4G	.	.	.	.	.
=7	=7	=7	=7	=7	=7
2G	2B-]	1d	2r	2.g	0dd]
1B-	2G	.	2.d	.	.
.	.	.	.	4g	.
.	2.B-	1G	.	2g	.
.	.	.	4d	.	.
2G	.	.	2g	[2b-	.
.	4c	.	.	.	.
=8	=8	=8	=8	=8	=8
2.B-	2d	0r	2f	4b-]	1r
.	.	.	.	4cc	.
.	1g	.	2b-	1dd	.
4c	.	.	.	.	.
1d	.	.	1a	.	2r
.	4f	.	.	2a	[2dd
.	4e	.	.	.	.
=9	=9	=9	=9	=9	=9
2.D	2.f	2r	1r	1a	4dd]
.	.	.	.	.	4dd
.	.	2.A	.	.	2dd
4D	4e	.	.	.	.
2D	2d	.	2r	1f	1ff
.	.	4A	.	.	.
[2F	4c	2A	[2a	.	.
.	4B-	.	.	.	.
=10	=10	=10	=10	=10	=10
2F]	2A	2c	4a]	2.f	2cc
.	.	.	4a	.	.
2D	2d	2d	2a	.	2.ff
.	.	.	.	4g	.
2.F	2c	[1A	2f	1a	.
.	.	.	.	.	4ee
.	2f	.	[2a	.	[2dd
4G	.	.	.	.	.
=11	=11	=11	=11	=11	=11
1A	1e	1A]	4a]	2r	2dd]
.	.	.	4g	.	.
.	.	.	2e	2a	2cc#
1D	1d	2r	2f	2a	2dd
.	.	2d	2a	2a	2ff
=12	=12	=12	=12	=12	=12
0r	0r	2d	2a	1.dd	2ff
.	.	2d	2a	.	2ff
.	.	2g	2b-	.	2dd
.	.	2c	[2g	2cc	2ee-
=13	=13	=13	=13	=13	=13
0r	0r	1d	2g]	2b-	2.dd
.	.	.	2f#	2.a	.
.	.	.	.	.	4cc
.	.	2e-	1g	.	2b-
.	.	.	.	4g	.
.	.	2c	.	[2g	2cc
=14	=14	=14	=14	=14	=14
1r	2r	1d	2r	2g]	1a
.	2d	.	2a	2f#	.
2r	2d	1G	1b	1g	1g
2G	2d	.	.	.	.
=15	=15	=15	=15	=15	=15
2G	1.g	1d	1b	0r	0r
2G	.	.	.	.	.
2c	.	2e-	2cc	.	.
2F	2f	2c	2a	.	.
=16	=16	=16	=16	=16	=16
1G	2e-	1g	1b-	0r	0r
.	2.d	.	.	.	.
2A	.	2e	1a	.	.
.	4c	.	.	.	.
2F	[2c	2f	.	.	.
=17	=17	=17	=17	=17	=17
1G	2c]	1d	1g	2r	1dd
.	2B	.	.	2g	.
[1C	1c	2r	2r	2g	1ee
.	.	2c	2g	2g	.
=18	=18	=18	=18	=18	=18
1C]	0r	2c	2g	1.cc	1ee
.	.	2c	2g	.	.
1r	.	2f	2a	.	2ff
.	.	2B-	2f	2b-	2dd
=19	=19	=19	=19	=19	=19
1r	1r	1c	1cc	2a	1ee-
.	.	.	.	1g	.
1D	2r	1d	2b-	.	[1dd
.	2d	.	4a	4f#	.
.	.	.	4g	4e	.
=20	=20	=20	=20	=20	=20
2D	2d	2r	1a	1f#	1dd]
2D	2d	2d	.	.	.
2G	2B-	2d	2r	1g	1r
2C	2c	2e-	2g	.	.
=21	=21	=21	=21	=21	=21
1D	1.A	2d	2f	2r	1.dd
.	.	2.f	4d	2a	.
.	.	.	4e	.	.
1D	.	.	4f	2a	.
.	.	4e	4g	.	.
.	2A	[2d	[2a	2f#	2dd
=22	=22	=22	=22	=22	=22
1G	2B-	4d]	2a]	1g	2dd
.	.	4c	.	.	.
.	2G	2B-	1g	.	2ee-
1D	1d	1A	.	1a	1dd
.	.	.	2f#	.	.
=23	=23	=23	=23	=23	=23
0G	0d	0G	0g	0b	0dd
*-	*-	*-	*-	*-	*-
!!!CDT: 1525/^1526/-1594/2/2
!!!OCY: Italia
!!!AGN: Mass (Parody)
!!!AST: renaissance, vocal
!!!ASW: Madrigal 1565 (Primavera)
!!!PWK: Masses, Book 5
!!!RNB: Cadence finals: D
!!!YOR: Le Opere Complete, v. 15, p. 161
!!!YOO: Rome, Italy: Fratelli Scalera
!!!END: 1992//
!!!EED: John Miller
!!!YEC: Copyright 2000, John Miller
!!!YEN: United States of America
!!!YEM: Rights to all derivative electronic formats reserved.
!!!YEM: Refer to licensing agreement for further details.
!!!YEM: This file must be accompanied by the licensing agreement.
!!!YEM: A copy of the licensing agreement may be found at http://www.music-cog.ohio-state.edu/HumdrumDatabases/Palestrina/license.txt
!!!EMD: converted to Humdrum by Bret Aarden
